X: 215
T: Hinchy's delight
C: anon.
O: Ireland
B: Francis O'Neill: "The Dance Music of Ireland" (1907) no. 215
R: Double jig
Z: Transcribed by Frank Nordberg - http://www.musicaviva.com
F: http://www.musicaviva.com/abc/tunes/ireland/oneill-1001/oneill-1001-021
5.abc
M: 6/8
L: 1/8
K: G
A|BAB GBG|AFD F2G|AGA fed|cAG FGA|BAB GBG|AFD F2G|AGA fed|cAF G2:|
|:d|gfg afd|gfg a2d|gfg b2g|a2g fga|geg fed|fed cde|fef ded|cAF G2:|
|:(e/f/)|(g/f/)e(g f)df|(e/d/)c(e d)B(G|A)GA (fe)d|cAG FGA|(g/f/)e(g f)df
|(f/e/d)(e d)B(G|A)BA (fe)(d|c)AFG2:|
W:
W:
W: From Musica Viva - http://www.musicaviva.com
W: the Internet center for free sheet music downloads.


